X:58
T:Jigs simple chords 204
M:3/4
L:1/8
K:D
A[D2D,2F,2A,2]D ED | E[F2D,2F,2A,2]F GF | G[A2D,2F,2A,2]d dc | d[eE,G,B,] dB AF | E[D2D,2F,2A,2]D ED |
E[F2D,2F,2A,2]F GA | B[AA,CEG] Bc de | f[gA,CEG] ec d2 | A[D2D,2F,2A,2]D ED |
E[F2D,2F,2A,2]F GF | G[A2D,2F,2A,2]d dc | d[eE,G,B,] dB AF | E[D2D,2F,2A,2]D ED |
E[F2D,2F,2A,2]F GA | B[AA,CEG] Bc de | f[gA,CEG] ec d2 | A[D2D,2F,2A,2]D ED |
E[F2D,2F,2A,2]F GF | G[A2D,2F,2A,2]d dc | d[eE,G,B,] dB AF | E[D2D,2F,2A,2]D ED |
E[F2D,2F,2A,2]F GA | B[AA,CEG] Bc de | f[gA,CEG] ec d2 | A[D2D,2F,2A,2]D ED |
E[F2D,2F,2A,2]F GF | G[A2D,2F,2A,2]d dc | d[eE,G,B,] dB AF | E[D2D,2F,2A,2]D ED |
E[F2D,2F,2A,2]F GA | B[AA,CEG] Bc de | f[gCEG] ec d2 | [f/A,/]g/[a2D,2F,2A,2D,2F,2A,2]a de |
f[g2=C,2E,2G,2]g cd | e[f2D,2F,2A,2]d g2 | f[eE,G,B,] dB Af | g[a2D,2F,2A,2]a de |
f[g2=C,2E,2G,2]g cd | e[f2B,2D2F2]d g2 | f[eA,CEG] cA d2 | f/g/[a2F,2A,2C2]a de |
f[g2E,2G,2B,2]g =cd | e[f2D,2F,2A,2]d g2 | f[eE,^G,B,D] dB AF | E[D2B,2D2F2]D ED |
E[F2D,2F,2A,2]F GA | B[AF,A,C] Bc de | f[gA,CEG] ec d2 |

